Catalina-light/actions/16/document-export.svg

<svg xmlns="http://www.w3.org/2000/svg" width="16" height="16" viewBox="0 0 16 16">
 <defs>
  <style id="current-color-scheme" type="text/css">
   .ColorScheme-Text { color:#5c616c; } .ColorScheme-Highlight { color:#5294e2; }
  </style>
 </defs>
 <path style="fill:currentColor" class="ColorScheme-Text" d="M 3 1.0097656 C 3 1.0097656 2 1.0097656 2 2.0097656 L 2 11.005859 L 2 14.009766 C 2 15.009766 3 15.009766 3 15.009766 L 13 15.009766 C 14 15.009766 14 14.009766 14 14.009766 L 14 9.7597656 L 12 11.009766 L 12 13.009766 L 4 13.009766 L 4 3.0136719 L 12 3.0136719 L 12 5.0097656 L 14 6.2597656 L 14 2.0097656 C 14 1.0097656 13 1.0097656 13 1.0097656 L 3 1.0097656 z M 10 5.0078125 L 10 7.0078125 L 6 7.0078125 L 6 9.0078125 L 10 9.0078125 L 10 11.007812 L 14.5 8.0078125 L 10 5.0078125 z"/>
</svg>

<svg width="16" height="16" viewBox="0 0 16 16" xmlns="http://www.w3.org/2000/svg">
<defs>
<style id="current-color-scheme" type="text/css">.ColorScheme-Text { color:#5c616c; } .ColorScheme-Highlight { color:#5294e2; }</style>
</defs>
<path class="ColorScheme-Text" d="m3 1.0098s-1 0-1 1v8.9961 3.0039c0 1 1 1 1 1h10c1 0 1-1 1-1v-4.25l-2 1.25v2h-8v-9.9961h8v1.9961l2 1.25v-4.25c0-1-1-1-1-1h-10zm7 3.998v2h-4v2h4v2l4.5-3-4.5-3z" fill="#363636"/>
</svg>
